!!!!SEGMENT: pl-kk--kk-i-7--012_anonim--kyrie.krn
!!!cenid: 16xx:802
!!!COM: Anonim
!!!COM-rismid: pe30004985
!!!CDT:
!!!CNT:
!!!OTL: Kyrie
!!!PDT:
!!!AGN: Sacred
!!!SMS-siglum: PL-Kk
!!!SMS-shelfmark: Kk.I.7
!!!SMS-shelfwork: 012 W
!!!SMS-variant:
!!!SMS-altvar:
!!!NIFC-rismid: 300258089
!!!URL-scan: http://repozytorium.nifc.pl/skany/pl-kk-nut--i-7
!!!ONB-nifc: UWAGA: C (skan 0009, s.12), A (0096, s.12), T(0173, s.10), B(0261, s.12-13). Następny utwór: Et in terra pax
**kern	**text	**kern	**text	**kern	**text	**kern	**text
*part4	*part4	*part3	*part3	*part2	*part2	*part1	*part1
*staff4	*staff4	*staff3	*staff3	*staff2	*staff2	*staff1	*staff1
*Ibass	*	*Itenor	*	*Ialto	*	*Ivox	*
*I"[BASSVS.]	*	*I"[TENOR.]	*	*I"[ALTVS.]	*	*I"[CANTVS.]	*
*I'[B]	*	*I'[T]	*	*I'[A]	*	*I'[C]	*
*clefF4	*	*clefC4	*	*clefC4	*	*clefC3	*
*k[b-]	*	*k[b-]	*	*k[b-]	*	*k[b-]	*
*F:	*	*F:	*	*F:	*	*F:	*
*M2/1	*	*M2/1	*	*M2/1	*	*M2/1	*
*met(c|)	*	*met(c|)	*	*met(c|)	*	*met(c|)	*
=1-	=1-	=1-	=1-	=1-	=1-	=1-	=1-
*all\right	*	*all\right	*	*all\right	*	*all\right	*
!LO:TX:t=P:problem:kreska pseudotaktowa	!	!	!	!	!	!	!
!	!	!	!	!	!	!	!
1r	.	1F/	Ky-	1.A\	Ky-	1c\	Ky-
*	*	*	*	*	*	*2\right	*
!	!	!LO:TX:t=P:problem:kreska pseudotaktowa	!	!	!	!	!
1F\	Ky-	1D/	-ri-	.	.	2d\	-ri-
*	*	*	*	*2\right	*	*	*
!	!	!	!	!LO:TX:t=P:problem:kreska pseudotaktowa	!	!	!
!	!	!	!	!	!	!	!
.	.	.	.	2B-\	-ri-	1f\	-e
=2-	=2-	=2-	=2-	=2-	=2-	=2-	=2-
*	*	*lig	*	*	*	*	*
2D\	-ri-	1F/	-e	2.A/	-e	.	.
1F\	-e	.	.	.	.	4e\	.
!	!	!	!	!	!	!LO:TX:t=P:problem:kreska pseudotaktowa	!
.	.	.	.	4B-\	.	4d\	.
.	.	1G/	.	2c\	.	4c\	.
.	.	.	.	.	.	4d\	.
!	!	!	!	!LO:TX:t=P:problem:kreska pseudotaktowa	!	!LO:TX:t=P:problem:kreska pseudotaktowa	!
2E\	.	.	.	2C/	[e]-	2e\	.
!LO:TX:t=P:problem:kreska pseudotaktowa	!	!	!	!	!	!	!
!	!	!	!	!	!	!	!
*	*	*Xlig	*	*	*	*	*
=3-	=3-	=3-	=3-	=3-	=3-	=3-	=3-
*	*	*lig	*	*	*	*	*
2D\	.	1A\	.	2D/	.	2f\	e-
2C/	e-	.	.	2E/	.	2e\	.
!	!	!	!	!	!	!LO:TX:t=P:problem:kreska pseudotaktowa	!
1BB-/	-ley-	1B-\	.	0F/	-lei	1d\	.
*	*	*Xlig	*	*	*	*	*
=4-	=4-	=4-	=4-	=4-	=4-	=4-	=4-
!LO:TX:t=P:problem:kreska pseudotaktowa	!	!	!	!	!	!	!
*	*	*lig	*	*	*	*	*
1FF/	-son	1A\	.	.	.	2c/	-le-
.	.	.	.	.	.	1f\	.
2r	.	1G/	.	2C/	-ſo(n)	.	.
!	!	!	!	!LO:TX:t=P:problem:kreska pseudotaktowa	!	!LO:TX:t=P:problem:kreska pseudotaktowa	!
2C/	/Ky-	.	.	2c\	.	2e\	-i-
!	!	!	!	!	!	!	!
*	*	*Xlig	*	*	*	*	*
=5-	=5-	=5-	=5-	=5-	=5-	=5-	=5-
!	!	!	!	!	!	!LO:TX:t=P:problem:rozdzielacz słów / znak oddechu na 4 linii	!
2D\	-ri-	1F/	e-	2A/	ky-	2f\,	-ſon
*	*	*	*	*	*	*	*ij
1F\	-e	.	.	2A/	-ri-	2F/	Ky-
*	*	*lig	*	*	*	*	*
.	.	1D/	-lei-	1d\	-e	2A/	-ri-
!	!	!	!	!	!	!LO:TX:t=P:problem:kreska pseudotaktowa	!
4E\	.	.	.	.	.	2B-/	.
!LO:TX:t=P:problem:kreska pseudotaktowa	!	!	!	!	!	!	!
4D\	.	.	.	.	.	.	.
=6-	=6-	=6-	=6-	=6-	=6-	=6-	=6-
1C/	e-	1E/	.	2G/	e-	1.c\	-e
.	.	.	.	2.A/	.	.	.
*lig	*	*Xlig	*	*	*	*	*
!LO:TX:t=P:problem:fermata lub łuk [przyjęto fermatę]	!	!	!	!	!	!	!
1FF/;	-ley-	0.Fl/;	-ſon	.	.	.	.
.	.	.	.	4B-\	.	.	.
.	.	.	.	2c\	.	2A/	e-
=7-	=7-	=7-	=7-	=7-	=7-	=7-	=7-
1BB-/	.	.	.	1B-\	-lei-	1d\	-lei-
*Xlig	*	*	*	*	*	*	*
1FF/;	-son/	.	.	1Al\;	-ſon.	1cl\;	-ſon
*	*	*	*	*	*	*	*Xij
!	!	!	!	!LO:LB:g=original	!	!LO:LB:g=original	!
=8||	=8||	=8||	=8||	=8||	=8||	=8||	=8||
*M2/1	*	*M2/1	*	*M2/1	*	*M2/1	*
*met(c|)	*	*met(c|)	*	*met(c|)	*	*met(c|)	*
!	!	!	!	!	!	!	!
*	*	*lig	*	*	*	*	*
!	!	!	!	!	!	!	!
2r	.	1F/	Chri-	2.c\	CHri-	0r	.
1F\	CHri-	.	.	.	.	.	.
.	.	.	.	4B-\	.	.	.
.	.	1c\	.	2A/	.	.	.
!	!	!	!	!LO:TX:t=P:problem:kreska pseudotaktowa	!	!	!
2E\	.	.	.	2G/	.	.	.
!LO:TX:t=P:problem:kreska pseudotaktowa	!	!	!	!	!	!	!
*	*	*Xlig	*	*	*	*	*
=9-	=9-	=9-	=9-	=9-	=9-	=9-	=9-
!	!	!LO:TX:t=P:problem:kreska pseudotaktowa	!	!	!	!	!
2F\	-ſte	1c\	-ſte	2A/	-ſte	2r	.
2A\	.	.	.	2F/	.	1f\	CHri-
!LO:TX:t=P:problem:kreska pseudotaktowa	!	!	!	!	!	!	!
*	*	*lig	*	*	*	*	*
1G\	e-	1B-\	.	2G/	e-	.	.
!	!	!	!	!LO:TX:t=P:problem:kreska pseudotaktowa	!	!LO:TX:t=P:problem:kreska pseudotaktowa	!
.	.	.	.	2B-\	.	2e\	.
=10-	=10-	=10-	=10-	=10-	=10-	=10-	=10-
2.F\	.	1A\	.	4c\	.	1.f\	-ſte
.	.	.	.	4B-\	.	.	.
.	.	.	.	4A/	.	.	.
!	!	!	!	!LO:TX:t=P:problem:kreska pseudotaktowa	!	!	!
4E\	.	.	.	4G/	.	.	.
!	!	!	!	!	!	!	!
*	*	*Xlig	*	*	*	*	*
*	*	*lig	*	*	*	*	*
4D\	.	1B-\	.	1F/	.	.	.
4C/	.	.	.	.	.	.	.
!LO:TX:t=P:problem:kreska pseudotaktowa	!	!	!	!	!	!	!
!LO:SIC:v:t=custos C	!	!	!	!	!	!	!
2D\	.	.	.	.	.	4e\	e-
!	!	!	!	!	!	!LO:TX:t=P:problem:kreska pseudotaktowa	!
.	.	.	.	.	.	4d\	.
=11-	=11-	=11-	=11-	=11-	=11-	=11-	=11-
1C/	-lei-	1c\	.	2.G/	.	4e\	.
.	.	.	.	.	.	4f\	.
.	.	.	.	.	.	2.g\	.
!	!	!	!	!LO:TX:t=P:problem:kreska pseudotaktowa	!	!	!
.	.	.	.	4A/	.	.	.
!	!	!	!	!	!	!	!
*	*	*Xlig	*	*	*	*	*
*	*	*lig	*	*	*	*	*
1BB-/	.	1d\	.	2B-\	.	.	.
.	.	.	.	.	.	4f\	.
.	.	.	.	2A/	.	1f\	-lei-
=12-	=12-	=12-	=12-	=12-	=12-	=12-	=12-
!LO:TX:t=P:problem:kreska pseudotaktowa	!	!	!	!	!	!	!
1C/	-ſon	1c\	.	1G/	-lei-	.	.
!	!	!	!	!	!	!LO:TX:t=P:problem:kreska pseudotaktowa	!
.	.	.	.	.	.	2e\	.
2r	.	1A\	.	1.F/	-ſon	2.f\	-ſon
2FF/	/CHri-	.	.	.	.	.	.
.	.	.	.	.	.	4e\	.
*	*	*Xlig	*	*	*	*	*
=13-	=13-	=13-	=13-	=13-	=13-	=13-	=13-
*	*	*lig	*	*	*	*	*ij
2BB-/	.	1B-\	.	.	.	1d\	CHri-
*	*	*	*	*	*ij	*	*
!LO:TX:t=P:problem:kreska pseudotaktowa	!	!	!	!LO:TX:t=P:problem:kreska pseudotaktowa	!	!	!
2GG/	.	.	.	2.G/	CHri-	.	.
!	!	!LO:SIC:v:t=custos G	!	!	!	!	!
2AA/	.	1A\	.	.	.	0c\	-ſte
.	.	.	.	4F/	.	.	.
2FF/	.	.	.	1F/	-ſte	.	.
*	*	*Xlig	*	*	*	*	*
!	!	!LO:LB:g=original	!	!	!	!	!
=14-	=14-	=14-	=14-	=14-	=14-	=14-	=14-
!LO:TX:t=P:problem:kreska pseudotaktowa	!	!	!	!	!	!	!
*	*	*lig	*	*	*	*	*
1C/	-ſte	1G/	e-	.	.	.	.
!	!	!	!	!LO:TX:t=P:problem:kreska pseudotaktowa	!	!	!
.	.	.	.	2E/	e-	.	.
!	!	!	!	!	!	!LO:TX:t=P:problem:kreska pseudotaktowa	!
1D\	e-	1F/	.	2F/	.	1A/	e-
.	.	.	.	2A/	.	.	.
*	*	*Xlig	*	*	*	*	*
=15-	=15-	=15-	=15-	=15-	=15-	=15-	=15-
1BB-/	-lei-	1D/	-le-	1B-\	-le-	1d\	-lei-
1C/	.	1E/	-i-	1G/	-i-	1c\	.
=16-	=16-	=16-	=16-	=16-	=16-	=16-	=16-
0FF/;	-ſon/	0Fl/;	-ſon.	0Al\;	-ſon	0cl\;	-ſon
*	*	*	*	*	*Xij	*	*Xij
!	!	!	!	!LO:LB:g=original	!	!LO:LB:g=original	!
=17||	=17||	=17||	=17||	=17||	=17||	=17||	=17||
*M2/1	*	*M2/1	*	*M2/1	*	*M2/1	*
*met(c|)	*	*met(c|)	*	*met(c|)	*	*met(c|)	*
!LO:TX:t=P:problem:kreska pseudotaktowa	!	!	!	!	!	!	!
!	!	!	!	!	!	!	!
*	*	*lig	*	*	*	*	*
!	!	!	!	!LO:TX:t=P:problem:kreska pseudotaktowa	!	!	!
!	!	!	!	!	!	!	!
1r	.	1F/	Ky-	1r	.	2.c/	Ky-
.	.	.	.	.	.	4B-/	.
2r	.	1c\	.	2.F/	Ky-	4A/	.
.	.	.	.	.	.	4G/	.
1F\	Ky-	.	.	.	.	1A/	.
!	!	!	!	!LO:TX:t=P:problem:kreska pseudotaktowa	!	!	!
.	.	.	.	4G/	.	.	.
!	!	!	!	!	!	!	!
*	*	*Xlig	*	*	*	*	*
=18-	=18-	=18-	=18-	=18-	=18-	=18-	=18-
.	.	1c\	-ri-	4A/	.	.	.
.	.	.	.	4B-\	.	.	.
!LO:TX:t=P:problem:kreska pseudotaktowa	!	!	!	!	!	!LO:TX:t=P:problem:kreska pseudotaktowa	!
2E\	-ri-	.	.	1c\	.	2G/	-ri-
*	*	*lig	*	*	*	*	*
2.D\	-e	1d\	-e	.	.	2A/	e
!	!	!	!	!LO:TX:t=P:problem:kreska pseudotaktowa	!	!	!
.	.	.	.	2B-\	-ri-	4F/	e-
4E\	.	.	.	.	.	4G/	.
=19-	=19-	=19-	=19-	=19-	=19-	=19-	=19-
2F\	.	1c\	.	2A/	-e	4A/	.
.	.	.	.	.	.	4B-/	.
2E\	.	.	.	2G/	.	1c\	-le-
!LO:TX:t=P:problem:kreska pseudotaktowa	!	!	!	!	!	!	!
*	*	*Xlig	*	*	*	*	*
!	!	!	!	!LO:TX:t=P:problem:kreska pseudotaktowa	!	!	!
1D\	.	1f\	.	1F/	.	.	.
!	!	!	!	!	!	!LO:TX:t=P:problem:kreska pseudotaktowa	!
.	.	.	.	.	.	2B-/	-i-
=20-	=20-	=20-	=20-	=20-	=20-	=20-	=20-
!	!	!	!	!	!	!LO:TX:t=P:problem:kreska pseudotaktowa	!
1C/	[e]-	1e\	.	2G/	e-	1c\	-ſon
.	.	.	.	1A\	-lei-	.	.
!LO:TX:t=P:problem:kreska pseudotaktowa	!	!	!	!	!	!	!
*	*	*lig	*	*	*	*	*ij
1D\	-ley-	1d\	.	.	.	1f\	Ky-
.	.	.	.	4G/	.	.	.
!	!	!	!	!LO:TX:t=P:problem:kreska pseudotaktowa	!	!	!
.	.	.	.	4F/	.	.	.
=21-	=21-	=21-	=21-	=21-	=21-	=21-	=21-
2AA/	-ſon	1c\	.	1A\	-ſon	2e\	-ri-
!	!	!	!	!	!	!LO:TX:t=P:problem:kreska pseudotaktowa	!
1A\	/Ky-	.	.	.	.	2c\	-e
!	!	!	!	!	!	!	!
*	*	*Xlig	*	*	*	*	*
*	*	*lig	*	*	*	*	*
.	.	1B-\	.	2r	.	2.d\	e-
*	*	*	*	*	*ij	*	*
!LO:TX:t=P:problem:kreska pseudotaktowa	!	!	!	!LO:TX:t=P:problem:kreska pseudotaktowa	!	!	!
2G\	-ri-	.	.	2B-\	Ky-	.	.
.	.	.	.	.	.	4e\	.
=22-	=22-	=22-	=22-	=22-	=22-	=22-	=22-
2F\	-e	1c\	.	2A/	-rie	2f\	-le-
2E\	e-	.	.	2G/	e-	2g\	-i-
!LO:TX:t=P:problem:kreska pseudotaktowa	!	!	!	!	!	!	!
!LO:SIC:v:t=custos D	!	!	!	!	!	!	!
*	*	*Xlig	*	*	*	*	*
!	!	!	!	!	!	!LO:TX:t=P:problem:kreska pseudotaktowa	!
2.D\	-ley-	1d\	.	1A\	-lei-	1f\	-ſon
*	*	*	*	*	*	*	*Xij
4E\	.	.	.	.	.	.	.
=23-	=23-	=23-	=23-	=23-	=23-	=23-	=23-
*	*	*lig	*	*	*	*	*
!	!	!	!	!LO:TX:t=P:problem:kreska pseudotaktowa	!	!	!
2F\	-ſon	1c\	e-	1A\	-ſon	2r	.
*	*	*	*	*	*Xij	*	*
!LO:TX:t=P:problem:kreska pseudotaktowa	!	!	!	!	!	!	!
2FF/	ky-	.	.	.	.	2f\	ky-
2FF/	-ri-	1A\	.	2r	.	2f\	-ri-
!	!	!	!	!	!	!LO:TX:t=P:problem:kreska pseudotaktowa	!
2FF/	-e	.	.	2F/	ky-	2f\	-e
!	!	!	!	!	!	!	!
*	*	*Xlig	*	*	*	*	*
=24-	=24-	=24-	=24-	=24-	=24-	=24-	=24-
*	*	*lig	*	*	*	*	*
1BB-/	[e]ley-	1B-\	.	2F/	-rie	1d\	.
!	!	!	!	!LO:TX:t=P:problem:kreska pseudotaktowa	!	!	!
.	.	.	.	2F/	[e-]	.	.
!LO:TX:t=P:problem:kreska pseudotaktowa	!	!	!	!	!	!	!
1FF/	-ſon/	1A\	.	1F/	-lei-	2c/	e-
.	.	.	.	.	.	1f\	.
*	*	*Xlig	*	*	*	*	*
=25-	=25-	=25-	=25-	=25-	=25-	=25-	=25-
*	*	*lig	*	*	*	*	*
2r	.	1G/	.	2C/	-ſon	.	.
*	*	*	*	*	*ij	*	*
!	!	!	!	!LO:TX:t=P:problem:kreska pseudotaktowa	!	!LO:TX:t=P:problem:kreska pseudotaktowa	!
2C/	ky-	.	.	2c\	ky-	2e\	.
2D\	-ri-	1F/	.	2A\	-rie	2f\	.
2.BB-/	-e	.	.	2.B-\	[e-]	1d\	-lei-
!LO:TX:t=P:problem:kreska pseudotaktowa	!	!	!	!	!	!	!
*	*	*Xlig	*	*	*	*	*
=26-	=26-	=26-	=26-	=26-	=26-	=26-	=26-
!LO:N:xstem:cue	!	!	!	!	!	!	!
.	.	1D/	-le-	.	.	.	.
4C/	e-	.	.	4A/	.	.	.
2D\	-lei-	.	.	4G/	.	2B-/	.
.	.	.	.	4F/	.	.	.
!LO:TX:t=P:problem:kreska pseudotaktowa	!	!	!	!LO:TX:t=P:problem:kreska pseudotaktowa	!	!LO:TX:t=P:problem:kreska pseudotaktowa	!
!	!	!	!	!LO:SIC:v:t=custos A	!	!	!
1C/	.	1E/	-i-	1G/	-le-	1c\	-ſon
!	!	!	!	!LO:LB:g=original	!	!	!
=27-	=27-	=27-	=27-	=27-	=27-	=27-	=27-
2FF/;	-son	[0Fl/;	-son.	2A/	-i-	2r	.
*	*	*	*	*	*	*	*ij
2.BB-/	.	.	.	1B-\	-son	2.d\	ky-
4C/	.	.	.	.	.	4e\	-ri-
!LO:TX:t=P:problem:kreska pseudotaktowa	!	!	!	!LO:TX:t=P:problem:kreska pseudotaktowa	!	!LO:TX:t=P:problem:kreska pseudotaktowa	!
!	!	!	!	!	!	!LO:SIC:v:t=custos d	!
2D\	.	.	.	2A/	ky-	2f\	-e
!	!	!	!	!	!	!LO:LB:g=original	!
=28-	=28-	=28-	=28-	=28-	=28-	=28-	=28-
2BB-/	.	0F_	.	2B-\	-ri-	1.d\	e-
2.D\	.	.	.	4A/	.	.	.
!	!	!	!	!LO:TX:t=P:problem:kreska pseudotaktowa	!	!	!
.	.	.	.	4G/	.	.	.
.	.	.	.	2.A/	-e	.	.
4E\	.	.	.	.	.	.	.
!LO:TX:t=P:problem:kreska pseudotaktowa	!	!	!	!	!	!	!
2F\	.	.	.	.	.	4c/	.
!	!	!	!	!	!	!LO:TX:t=P:problem:kreska pseudotaktowa	!
.	.	.	.	4B-\	.	4B-/	.
=29-	=29-	=29-	=29-	=29-	=29-	=29-	=29-
1FF/	.	0F_	.	2c\	.	4A/	.
.	.	.	.	.	.	4B-/	.
!	!	!	!	!LO:TX:t=P:problem:kreska pseudotaktowa	!	!LO:TX:t=P:problem:kreska pseudotaktowa	!
.	.	.	.	2A/	[e-]	2c/	.
1BB-/	.	.	.	1B-\	-lei-	1d\	-lei-
=30-	=30-	=30-	=30-	=30-	=30-	=30-	=30-
0FF/;	.	0F]	.	0Al\;<	-ſon	0cl\	-ſon
*	*	*	*	*	*Xij	*	*Xij
!	!	!LO:LB:g=original	!	!	!	!	!
=31||	=31||	=31||	=31||	=31||	=31||	=31||	=31||
*M2/1	*	*M2/1	*	*M2/1	*	*M2/1	*
*met(c|)	*	*met(c|)	*	*met(c|)	*	*met(c|)	*
!LO:TX:t=P:problem:kreska pseudotaktowa	!	!	!	!	!	!	!
!	!	!	!	!	!	!	!
*	*	*lig	*	*	*	*	*
!	!	!	!	!	!	!	!
1rBB	.	1F/	Ky-	2r	.	1f\	Ky-
.	.	.	.	1f\	Ky-	.	.
!	!	!	!	!	!	!LO:TX:t=P:problem:kreska pseudotaktowa	!
1C/	Ky-	1c\	.	.	.	1g\	-ri-
!	!	!	!	!LO:TX:t=P:problem:kreska pseudotaktowa	!	!	!
.	.	.	.	2e\	-ri-	.	.
!	!	!	!	!	!	!	!
*	*	*Xlig	*	*	*	*	*
=32-	=32-	=32-	=32-	=32-	=32-	=32-	=32-
2.F\	.	1c\	-ri-	2f\	-e	2.a\	-e
.	.	.	.	2F/	.	.	.
!LO:TX:t=P:problem:kreska pseudotaktowa	!	!	!	!	!	!	!
4E\	.	.	.	.	.	4g\	.
*	*	*lig	*	*	*	*	*
2D\	.	1d\	-e	2A/	e-	4f\	.
.	.	.	.	.	.	4e\	.
!	!	!	!	!LO:TX:t=P:problem:kreska pseudotaktowa	!	!	!
2BB-/	ri-	.	.	2B-\	.	1f\	.
=33-	=33-	=33-	=33-	=33-	=33-	=33-	=33-
1C/	-e	1c\	.	1G/	-lei-	.	.
!	!	!	!	!	!	!LO:TX:t=P:problem:kreska pseudotaktowa	!
.	.	.	.	.	.	2e\	[e-]
!	!	!	!	!	!	!	!
*	*	*Xlig	*	*	*	*	*
*	*	*lig	*	*	*	*	*
4D\	.	1f\	.	4F/	.	1d\	.
4E\	.	.	.	4G/	.	.	.
4F\	e-	.	.	4A/	.	.	.
!LO:TX:t=P:problem:kreska pseudotaktowa	!	!	!	!LO:TX:t=P:problem:kreska pseudotaktowa	!	!	!
4G\	.	.	.	4B-\	.	.	.
=34-	=34-	=34-	=34-	=34-	=34-	=34-	=34-
4A\	.	1e\	.	1c\	.	4c/	.
4B-\	.	.	.	.	.	4d\	.
1c\	.	.	.	.	.	4e\	.
!	!	!	!	!	!	!LO:TX:t=P:problem:kreska pseudotaktowa	!
.	.	.	.	.	.	4f\	.
!	!	!	!	!	!	!	!
*	*	*Xlig	*	*	*	*	*
*	*	*lig	*	*	*	*	*
!	!	!	!	!LO:TX:t=P:problem:kreska pseudotaktowa	!	!	!
.	.	1d\	.	1G/	-ſon	1g\	.
!LO:TX:t=P:problem:kreska pseudotaktowa	!	!	!	!	!	!	!
2B-\	.	.	.	.	.	.	.
=35-	=35-	=35-	=35-	=35-	=35-	=35-	=35-
!	!	!LO:TX:t=P:problem:kreska pseudotaktowa	!	!	!	!	!
2A\	.	1c\	.	2r	.	2e\	-le-
*	*	*	*	*	*ij	*	*
2F\	-lei-	.	.	2A/	Ky-	1f\	.
*	*	*Xlig	*	*	*	*	*
!LO:TX:t=P:problem:kreska pseudotaktowa	!	!	!	!	!	!	!
*	*	*lig	*	*	*	*	*
1G\	.	1B-\	.	2B-\	-ri-	.	.
!	!	!	!	!LO:TX:t=P:problem:kreska pseudotaktowa	!	!	!
!	!	!	!	!LO:SIC:v:t=custos A	!	!	!
.	.	.	.	2G/	-e	2e\	-i-
!	!	!	!	!LO:LB:g=original	!	!	!
=36-	=36-	=36-	=36-	=36-	=36-	=36-	=36-
!	!	!	!	!	!	!LO:TX:t=P:problem:kreska pseudotaktowa	!
2.F\	-ſon	1c\	.	1.A\	e-	1f\	-ſon
4E\	.	.	.	.	.	.	.
*	*	*Xlig	*	*	*	*	*
*	*	*lig	*	*	*	*	*
2D\	.	1d\	.	.	.	2r	.
*	*	*	*	*	*	*	*ij
!LO:TX:t=P:problem:kreska pseudotaktowa	!	!	!	!LO:TX:t=P:problem:kreska pseudotaktowa	!	!	!
2BB-/	.	.	.	2B-\	.	1f\	Ky-
=37-	=37-	=37-	=37-	=37-	=37-	=37-	=37-
1C/	/Ky-	1c\	.	1G/	-lei-	.	.
!	!	!	!	!	!	!LO:TX:t=P:problem:kreska pseudotaktowa	!
.	.	.	.	.	.	2e\	.
!	!	!	!	!	!	!	!
*	*	*Xlig	*	*	*	*	*
!	!	!LO:TX:t=P:problem:kreska pseudotaktowa	!	!	!	!	!
2D\	.	1A\	.	2.F/	.	2d\	-ri-
1F\	.	.	.	.	.	2c/	.
!	!	!	!	!LO:TX:t=P:problem:kreska pseudotaktowa	!	!	!
.	.	.	.	4G/	.	.	.
=38-	=38-	=38-	=38-	=38-	=38-	=38-	=38-
.	.	0c\	e-	2A/	son	1f\	-e
*	*	*	*	*	*Xij	*	*
4E\	.	.	.	4G/	.	.	.
!LO:TX:t=P:problem:kreska pseudotaktowa	!	!	!	!	!	!	!
4D\	.	.	.	4F/	.	.	.
!	!	!	!	!	!	!LO:TX:t=P:problem:kreska pseudotaktowa	!
2.C/	-ri-	.	.	2.G/	ky-	1e\	e-
!	!	!	!	!LO:TX:t=P:problem:kreska pseudotaktowa	!	!	!
4BB-/	.	.	.	4A/	-ri-	.	.
=39-	=39-	=39-	=39-	=39-	=39-	=39-	=39-
*	*	*lig	*	*	*	*	*
4GG/	-e	1B-\	.	4B-\	.	2.d\	-le-
4AA/	.	.	.	4A/	.	.	.
!LO:TX:t=P:problem:kreska pseudotaktowa	!	!	!	!	!	!	!
2BB-/	.	.	.	4F/	-e	.	.
!	!	!	!	!LO:TX:t=P:problem:kreska pseudotaktowa	!	!LO:SIC:v:t=custos f	!
.	.	.	.	4G/	.	4e\	-i-
!	!	!	!	!	!	!LO:LB:g=original	!
!	!	!	!	!	!	!LO:TX:t=P:problem:kreska pseudotaktowa	!
2FF/	.	1c\	.	2A/	.	0f\	-ſon
2FF/	e-	.	.	2A/	e-	.	.
*	*	*Xlig	*	*	*	*	*Xij
=40-	=40-	=40-	=40-	=40-	=40-	=40-	=40-
!LO:TX:t=P:problem:kreska pseudotaktowa	!	!	!	!	!	!	!
!LO:SIC:v:t=custos FF	!	!	!	!	!	!	!
*	*	*lig	*	*	*	*	*
!	!	!	!	!LO:TX:t=P:problem:kreska pseudotaktowa	!	!	!
1BB-/	-lei-	1d\	.	1B-\	-lei-	.	.
1FF/	-ſon	1c\	.	2.A/	.	2r	.
!	!	!	!	!	!	!LO:TX:t=P:problem:kreska pseudotaktowa	!
.	.	.	.	.	.	2f\	Ky-
.	.	.	.	4B-\	.	.	.
!	!	!	!	!	!	!	!
*	*	*Xlig	*	*	*	*	*
=41-	=41-	=41-	=41-	=41-	=41-	=41-	=41-
*	*	*lig	*	*	*	*	*
2r	.	1A\	.	2c\	.	2e\	-ri-
!LO:TX:t=P:problem:kreska pseudotaktowa	!	!	!	!	!	!	!
2F\	Ky-	.	.	1A\	.	1f\	-e
2D\	.	1B-\	.	.	.	.	.
!	!	!	!	!LO:TX:t=P:problem:kreska pseudotaktowa	!	!	!
2E\	-ri-	.	.	2G/	.	4e\	.
!	!	!	!	!	!	!LO:TX:t=P:problem:kreska pseudotaktowa	!
.	.	.	.	.	.	4d\	.
!	!	!	!	!	!	!	!
*	*	*Xlig	*	*	*	*	*
=42-	=42-	=42-	=42-	=42-	=42-	=42-	=42-
*	*	*lig	*	*	*	*	*
2F\	-e	1A\	.	2A/	.	2c/	.
!LO:TX:t=P:problem:kreska pseudotaktowa	!	!	!	!	!	!	!
2D\	.	.	.	1F/	.	1d\	.
2BB-/	.	1G/	.	.	.	.	.
!	!	!	!	!LO:TX:t=P:problem:kreska pseudotaktowa	!	!	!
2C/	.	.	.	2E/	.	4c/	e-
!	!	!	!	!	!	!LO:TX:t=P:problem:kreska pseudotaktowa	!
.	.	.	.	.	.	4B-/	.
!	!	!	!	!	!	!	!
*	*	*Xlig	*	*	*	*	*
=43-	=43-	=43-	=43-	=43-	=43-	=43-	=43-
2D\	e-	1F/	.	2F/	.	2A/	.
1BB-/	.	.	.	2D/	.	2.B-/	.
.	.	1D/	-le-	2F/	.	.	.
.	.	.	.	.	.	4c/	.
!LO:TX:t=P:problem:kreska pseudotaktowa	!	!	!	!LO:TX:t=P:problem:kreska pseudotaktowa	!	!LO:TX:t=P:problem:kreska pseudotaktowa	!
2FF/	.	.	.	1.G/	.	2d\	-lei-
=44-	=44-	=44-	=44-	=44-	=44-	=44-	=44-
!	!	!	!	!	!	!	!
1C/	-lei-	1E/	-i-	.	.	1c\	-ſon
*	*	*	*	*	*	*	*ij
!	!	!LO:TX:t=P:problem:łuk nad nutą [przyjęto fermatę]	!	!	!	!	!
2FF/	-ſon/	[1Fl/;	-ſon.	2A/	.	2c\	e-
1BB-/	ky-	.	.	1B-\	.	1d\	-lei-
=45-	=45-	=45-	=45-	=45-	=45-	=45-	=45-
.	.	0F_	.	.	.	.	.
!LO:TX:t=P:problem:kreska pseudotaktowa	!	!	!	!	!	!	!
2C/	-ri-	.	.	4A/	.	4c/	.
!	!	!	!	!LO:TX:t=P:problem:kreska pseudotaktowa	!	!LO:TX:t=P:problem:kreska pseudotaktowa	!
.	.	.	.	4G/	.	4B-/	.
2D\	-e	.	.	4F/	.	4A/	.
!	!	!	!	!LO:SIC:v:t=custos d	!	!	!
.	.	.	.	4D/	.	4F/	.
!	!	!	!	!LO:LB:g=original	!	!	!
2BB-/	e-	.	.	1d\	.	1f\	.
=46-	=46-	=46-	=46-	=46-	=46-	=46-	=46-
2D\	-ley-	0F_	.	.	.	.	.
!LO:TX:t=P:problem:kreska pseudotaktowa	!	!	!	!	!	!	!
2BB-/	.	.	.	4c\	.	4e\	.
!	!	!	!	!LO:TX:t=P:problem:kreska pseudotaktowa	!	!LO:TX:t=P:problem:kreska pseudotaktowa	!
.	.	.	.	4B-\	.	4d\	.
2F\	-son.	.	.	2A/	.	2c/	.
2BB-/	.	.	.	2B-\	.	2d\	.
=47-	=47-	=47-	=47-	=47-	=47-	=47-	=47-
!	!	!	!	!	!	!	!
0FF/;	.	0F]	.	0A\l;<	-ſon.	0cl\;	-ſon
*	*	*	*	*	*	*	*Xij
==	==	==	==	==	==	==	==
*-	*-	*-	*-	*-	*-	*-	*-
!!!system-decoration: [s1,s2,s3,s4]
!!!RDF**kern: < = below
!!!RDF**kern: l = terminal long
!!!ENC: Marta Lawrence
!!!END: 2021-03-07
!!!ENC: Andrzej Kubiczek
!!!END: 2021-02-23
